build/images/common/em.svg

<svg width="26" height="25" viewBox="0 0 26 25" fill="none" xmlns="http://www.w3.org/2000/svg">
<g clip-path="url(#clip0_13_4071)">
<path d="M22.6567 3.32031H3.72319C2.12523 3.32031 0.825195 4.63457 0.825195 6.25V18.75C0.825195 20.3654 2.12523 21.6797 3.72319 21.6797H22.6567C24.2547 21.6797 25.5547 20.3654 25.5547 18.75V6.25C25.5547 4.63457 24.2547 3.32031 22.6567 3.32031ZM23.6227 18.75C23.6227 19.2885 23.1894 19.7266 22.6567 19.7266H3.72319C3.19054 19.7266 2.75719 19.2885 2.75719 18.75V6.25C2.75719 5.71152 3.19054 5.27344 3.72319 5.27344H22.6567C23.1894 5.27344 23.6227 5.71152 23.6227 6.25V18.75Z" fill="white"/>
<path d="M23.4591 4.53784L13.1903 12.2594L2.92159 4.53784L1.76848 6.10498L13.1903 14.6936L24.6122 6.10498L23.4591 4.53784Z" fill="white"/>
</g>
<defs>
<clipPath id="clip0_13_4071">
<rect width="24.7295" height="25" fill="white" transform="translate(0.825195)"/>
</clipPath>
</defs>
</svg>

<svg width="26" height="25" fill="none" xmlns="http://www.w3.org/2000/svg"><g clip-path="url(#clip0_13_4071)" fill="#fff"><path d="M22.657 3.32H3.723C2.125 3.32.825 4.635.825 6.25v12.5c0 1.615 1.3 2.93 2.898 2.93h18.934c1.598 0 2.898-1.315 2.898-2.93V6.25c0-1.615-1.3-2.93-2.898-2.93zm.966 15.43a.972.972 0 01-.966.977H3.723a.972.972 0 01-.966-.977V6.25c0-.538.434-.977.966-.977h18.934c.532 0 .966.439.966.977v12.5z"/><path d="M23.46 4.538l-10.27 7.721L2.922 4.538 1.768 6.105l11.422 8.589 11.422-8.589-1.153-1.567z"/></g><defs><clipPath id="clip0_13_4071"><path fill="#fff" transform="translate(.825)" d="M0 0h24.73v25H0z"/></clipPath></defs></svg>
